X: 20401
M: 2/4
L: 1/16
K: D
[|\
d2de d2de | d2de gfed | e2ef e2ef | e2ef agfe |\
f2fg f2fg | f2fg bagf | e2ed e2ed | efge cABc |
d2de d2de | d2de gfed | e2ef e2ef | e2ef agfe |\
f2fg a3g | f2fg a3g | f2fg e2ef | d2d2 d4 |]
[|\
a6 f2 | b2a2g2f2 | g2gf g2gf | g2gf g4 |\
g6 e2 | a2g2f2e2 | f2fe f2fe | f2fe f4 |
d2de d2de | d2de gfed | e2ef e2ef | e2ef agfe |\
f2fg a3g | f2fg a3g | f2fg e2ef | d2d2 d4 |]
[|\
c2d2e2f2 | g2f2e2d2 | c2d2e2f2 | g2f2 e4 |\


